X:102
T:Friarevisa.
S:Uppt. efter båtsman Hesselby, Rone.
M:2/4
L:1/8
K:G
D G G G|G B D2|G G/ A/ B2|
w:När du kum-mar pa ɷ gard~— ʃuŋg fal-la-ra
A/ G/ F/ E/ E D|D G G G|G B D2|
w:fal-la-ral-la-la-la~— stäig da av påll-häs-ten rar~—
G G/ A/ B2|d/ c/ B/ A/ A G|]
w:ʃuŋg fal-la-ra fal-la-ral-la-la-la.
